assets/Funeral urn/Flat/funeral_urn_flat.svg

<svg width="32" height="32" viewBox="0 0 32 32" fill="none" xmlns="http://www.w3.org/2000/svg">
<path d="M22.6803 7H24C24 7 26.7614 7.00001 27.6955 11.0152L27.0249 11.9944L27.9711 13.0032C27.99 13.3186 28 13.6506 28 14C28 14.341 27.9914 14.6791 27.9748 15.014L27.0249 15.9833L27.7817 17.0079C27.0368 22.1928 24.5614 26.4148 23.1023 28.5295C22.4391 29.4906 21.328 30 20.1603 30H11.8397C10.672 30 9.56094 29.4907 8.89777 28.5296C7.43721 26.4128 4.95842 22.1847 4.2162 16.993L4.98339 16.0095L4.02482 15.0067C4.00849 14.6742 4 14.3385 4 14C4 13.6477 4.01013 13.3131 4.02938 12.9953L5.00979 12.0072L4.30625 11.0078C5.24196 7.00001 8 7 8 7H9.3L10.0082 6.5792L9.67568 5.99569C10.8 3.63307 13.2093 2 16 2C18.7934 2 21.2047 3.63624 22.3276 6.00258L22.0148 6.61778L22.6803 7Z" fill="#E19747"/>
<path d="M9.67367 6H22.3264C22.4787 6.32067 22.6074 6.65475 22.7102 7H9.28992C9.39267 6.65475 9.52134 6.32067 9.67367 6Z" fill="#D3883E"/>
<path d="M27.9709 13C27.9251 12.2415 27.8275 11.5789 27.6919 11H4.30804C4.17237 11.5789 4.07476 12.2415 4.02905 13H27.9709Z" fill="#8C5543"/>
<path d="M4.02454 15C4.05774 15.6804 4.12379 16.3478 4.21725 17H27.7828C27.8763 16.3478 27.9423 15.6804 27.9755 15H4.02454Z" fill="#8C5543"/>
</svg>

<svg xmlns="http://www.w3.org/2000/svg" width="32" height="32" fill="none"><path fill="#E19747" d="M22.68 7H24s2.761 0 3.695 4.015l-.67.98.946 1.008c.019.316.029.648.029.997 0 .341-.009.68-.025 1.014l-.95.97.757 1.024c-.745 5.185-3.22 9.407-4.68 11.521C22.44 29.491 21.328 30 20.16 30h-8.32c-1.168 0-2.28-.51-2.942-1.47-1.46-2.117-3.94-6.345-4.682-11.537l.767-.983-.958-1.003A20.522 20.522 0 0 1 4 14c0-.352.01-.687.03-1.005l.98-.988-.704-1C5.242 7 8 7 8 7h1.3l.708-.42-.332-.584a7 7 0 0 1 12.652.007l-.313.615.665.382Z"/><path fill="#D3883E" d="M9.674 6h12.652c.153.32.281.655.384 1H9.29c.103-.345.231-.68.384-1Z"/><path fill="#8C5543" d="M27.97 13a11.926 11.926 0 0 0-.278-2H4.308a11.91 11.91 0 0 0-.279 2h23.942ZM4.025 15c.033.68.099 1.348.192 2h23.566c.093-.652.16-1.32.192-2H4.026Z"/></svg>
